X:1
T:Non so se quel sorriso
T:Non so se quel sorriso
T:Francesca Caccini (1587-c.1640)
C:Francesca Caccini (1587-c.1640)
%%score 1 2
L:1/8
M:3/2
K:C
V:1 treble nm="Voice"
V:2 bass nm="Violoncello"
V:1
 z4 z4 ^c4 | (d2 c2 d2) e2 f4 | d4 c4 _B4 | A6 A2 A4 | _B4 c8 | (d2 c2) _B2 A2 G4 | %6
w: Non|so * * * *|se quel sor-|ri- so mi|scher- ni-|sce,o' * * * *|
 F4"^tri" G6 F2 | F12 | z4 z4 B4 | (c2 B2 c2 d2 c4) | _B4"^tri" A6 G2 | A6 A2 _B4 | %12
w: m'as- si- *|da|se|quel * * * *|mi- ra- mi|si- so m'al-|
 (c2 x2 B2 c2 d2 e2 | f4) f4 e4 | d4"^tri" d6 (^c2 | d12) | z4 e4 e4 | (e4 f2 e2 d2 c2 | %18
w: let- * * * *|* tao' mi|dis- sa- da.||Già scher-|ni- to * e *|
 B2) A2"^tri" B6 A2 | A6 A2 B4 | c8 d4 | e6 (d2 c2 B2) | (A2 G2) (A6 G2) | G12 | z4 B4 ^c4 | %25
w: * * * de-|ri- so da|bel- la|don- na * in|* * si *|da|non vor-|
 (d2 c2 d2 e2 d4) | c8 B4 | (A2 G2 A2 B2 c2 d2) | (c2 d2 e2 d2 d2 c2) | c12 | (c3 d e4) d4 | %31
w: rei * * * *|piu che'i|co- * * * * *||re|fos- * * se|
 (c2 B2 c2 A2 B2 c2 | d2 e2 f4) e4 | d4"^tri" d6 ^c2 | d12 | (d3 e f4) e4 | (d6 c2 B2) c2 | %37
w: stra- * * * * *|* * * zio|d'a- mo- *|re|fos- * * se|stra- * * *|
"^tri" (A6 G2) A2 B2 | (c2 d2 e8) | d2 c2"^tri" (B6 A2) | A12 |] %41
w: ||zio d'a- mo- *|re.|
V:2
 z8"_#" A,4 | D,12 | _B,4 A,4 G,4 | F,8 F,4 | G,4 A,4 F,4 | _B,,4 C,4 D,4 | A,,4 C,8 | F,4 F,,8 | %8
 F,4 E,4 D,4 | C,12 | G,4 A,4 _B,4 | A,8 G,4 | F,8 E,4 | D,8"_#" A,4 | _B,4 A,8 | D,12 | %16
"_" A,,8 B,,4 | C,4 D,4 E,4 | F,4 E,8 |"_" A,,8"_#" E,4 |"_" A,,8 G,,4 | C,4 D,4 E,4 | %22
"_6" B,,4 D,8 | G,4 G,,8 | G,8 A,4 | D,4 E,4 F,4 | A,4 E,8 | F,4 E,4 D,4 | C,4 G,,8 | C,4 E,4 D,4 | %30
 C,8 G,4 | A,4 F,4 E,4 | D,4 E,4 F,4 | G,4 A,8 | D,4 F,4 E,4 | D,8"_#" A,4 |"_" D,8 E,4 | %37
 F,6 E,2 D,4 | C,8 D,4- | D,4"_II#IO" E,8 | A,,12 |] %41

